assets/img/podcast/listen/pocket-casts.svg

<svg xmlns="http://www.w3.org/2000/svg" width="100" height="30" fill="none" viewBox="0 0 100 30"><rect width="100" height="30" fill="#fff"/><rect width="100" height="30" fill="url(#paint0_linear)"/><path fill="#fff" d="M15 22.3988C13.5401 22.3988 12.113 21.9661 10.899 21.1553C9.68492 20.3446 8.73844 19.1921 8.17911 17.8437C7.61978 16.4952 7.4727 15.0112 7.75646 13.5791C8.04022 12.1471 8.74208 10.8313 9.77336 9.79801C10.8046 8.76471 12.1191 8.06028 13.5505 7.77372C14.982 7.48716 16.4663 7.63133 17.8159 8.18803C19.1655 8.74472 20.3197 9.68894 21.1329 10.9014C21.946 12.1139 22.3815 13.5401 22.3844 15H25C25 13.0222 24.4135 11.0888 23.3147 9.4443C22.2159 7.79981 20.6541 6.51808 18.8268 5.76121C16.9996 5.00433 14.9889 4.8063 13.0491 5.19215C11.1093 5.578 9.32746 6.53041 7.92894 7.92894C6.53041 9.32746 5.578 11.1093 5.19215 13.0491C4.8063 14.9889 5.00433 16.9996 5.76121 18.8268C6.51809 20.6541 7.79981 22.2159 9.4443 23.3147C11.0888 24.4135 13.0222 25 15 25V22.3988Z"/><path fill="#fff" d="M15 8.93063C13.3865 8.93063 11.839 9.5716 10.6981 10.7125C9.55714 11.8535 8.91617 13.4009 8.91617 15.0144C8.91617 16.628 9.55714 18.1754 10.6981 19.3164C11.839 20.4573 13.3865 21.0983 15 21.0983V18.9306C14.2261 18.9306 13.4695 18.7013 12.8258 18.2716C12.1821 17.8419 11.6801 17.2312 11.3833 16.5164C11.0865 15.8017 11.0081 15.015 11.158 14.2557C11.308 13.4965 11.6795 12.7987 12.2258 12.2504C12.772 11.7021 13.4684 11.328 14.2272 11.1753C14.9859 11.0225 15.7728 11.098 16.4887 11.3922C17.2045 11.6864 17.8171 12.1861 18.2492 12.8282C18.6812 13.4703 18.9133 14.2261 18.9162 15H21.0838C21.08 13.389 20.4373 11.8452 19.2968 10.7074C18.1563 9.56962 16.611 8.93063 15 8.93063Z"/><rect width="66" height="24" x="31" y="3" fill="#fff"/><path fill="#000" d="M48.4302 6.65869V13H49.564V10.9214H50.9395C52.2227 10.9214 53.1191 10.0601 53.1191 8.80322C53.1191 7.52441 52.2534 6.65869 50.9878 6.65869H48.4302ZM49.564 7.60791H50.689C51.5063 7.60791 51.9678 8.02539 51.9678 8.80322C51.9678 9.55908 51.4932 9.98096 50.6846 9.98096H49.564V7.60791ZM56.1997 13.0967C57.6367 13.0967 58.5112 12.1562 58.5112 10.5962C58.5112 9.04053 57.6323 8.0957 56.1997 8.0957C54.7715 8.0957 53.8882 9.04492 53.8882 10.5962C53.8882 12.1562 54.7583 13.0967 56.1997 13.0967ZM56.1997 12.1826C55.4395 12.1826 55.0044 11.6025 55.0044 10.5962C55.0044 9.59424 55.4395 9.00977 56.1997 9.00977C56.9556 9.00977 57.3906 9.59424 57.3906 10.5962C57.3906 11.6025 56.96 12.1826 56.1997 12.1826ZM63.7627 9.80957C63.6484 8.79883 62.9014 8.0957 61.6665 8.0957C60.2207 8.0957 59.3726 9.02295 59.3726 10.583C59.3726 12.165 60.2251 13.0967 61.6709 13.0967C62.8882 13.0967 63.644 12.4199 63.7627 11.4136H62.7256C62.6113 11.9146 62.2334 12.1826 61.6665 12.1826C60.9238 12.1826 60.4756 11.5938 60.4756 10.583C60.4756 9.58545 60.9194 9.00977 61.6665 9.00977C62.2642 9.00977 62.6245 9.34375 62.7256 9.80957H63.7627ZM66.0127 10.1523H65.938V6.3335H64.8481V13H65.938V11.3257L66.3247 10.939L67.8672 13H69.1855L67.1377 10.2534L69.0537 8.19238H67.7881L66.0127 10.1523ZM71.7783 8.96143C72.4331 8.96143 72.8638 9.41846 72.8857 10.1304H70.6226C70.6709 9.42725 71.1279 8.96143 71.7783 8.96143ZM72.8945 11.6772C72.7363 12.0332 72.3628 12.231 71.8223 12.231C71.106 12.231 70.6445 11.73 70.6182 10.9302V10.873H73.9756V10.5215C73.9756 9.00537 73.1538 8.0957 71.7827 8.0957C70.3896 8.0957 69.5239 9.06689 69.5239 10.6138C69.5239 12.1606 70.3765 13.0967 71.7915 13.0967C72.9253 13.0967 73.7207 12.5518 73.9272 11.6772H72.8945ZM75.417 7.01465V8.22314H74.6567V9.09326H75.417V11.7168C75.417 12.6484 75.8564 13.022 76.9595 13.022C77.1704 13.022 77.3726 13 77.5308 12.9692V12.1167C77.3989 12.1299 77.3154 12.1387 77.1616 12.1387C76.7046 12.1387 76.5024 11.9277 76.5024 11.4531V9.09326H77.5308V8.22314H76.5024V7.01465H75.417ZM54.855 24.1582C56.3184 24.1582 57.3906 23.2837 57.54 21.9873H56.4238C56.27 22.6992 55.6592 23.1475 54.855 23.1475C53.7739 23.1475 53.1016 22.2598 53.1016 20.8271C53.1016 19.3989 53.7739 18.5112 54.8506 18.5112C55.6504 18.5112 56.2612 19.0034 56.4194 19.7637H57.5356C57.4038 18.4409 56.292 17.5005 54.8506 17.5005C53.0532 17.5005 51.9414 18.7705 51.9414 20.8315C51.9414 22.8838 53.0576 24.1582 54.855 24.1582ZM60.3306 23.2222C59.8472 23.2222 59.5 22.9805 59.5 22.5762C59.5 22.1851 59.7856 21.9653 60.3965 21.9258L61.4819 21.8555V22.2378C61.4819 22.7959 60.9897 23.2222 60.3306 23.2222ZM60.0098 24.0791C60.6382 24.0791 61.1655 23.8066 61.4336 23.3408H61.5083V24H62.5586V20.7173C62.5586 19.6978 61.8643 19.0957 60.6294 19.0957C59.4868 19.0957 58.6914 19.6362 58.6035 20.4844H59.6318C59.7329 20.1592 60.0757 19.9834 60.5767 19.9834C61.1655 19.9834 61.4819 20.2471 61.4819 20.7173V21.1216L60.2427 21.1963C59.0737 21.2666 58.4189 21.7676 58.4189 22.6377C58.4189 23.5166 59.0825 24.0791 60.0098 24.0791ZM63.7627 20.5679C63.7627 21.293 64.1978 21.7192 65.1206 21.9302L65.9731 22.1279C66.4302 22.229 66.6367 22.4004 66.6367 22.6729C66.6367 23.0288 66.2544 23.2705 65.7051 23.2705C65.1602 23.2705 64.8218 23.0596 64.7163 22.7036H63.6396C63.7231 23.5781 64.479 24.0967 65.6787 24.0967C66.8784 24.0967 67.7266 23.4814 67.7266 22.5586C67.7266 21.8511 67.3003 21.4556 66.3818 21.249L65.5337 21.0557C65.0503 20.9458 64.8218 20.7788 64.8218 20.5063C64.8218 20.1592 65.1953 19.9219 65.6919 19.9219C66.2017 19.9219 66.5225 20.1372 66.6016 20.4756H67.6255C67.5464 19.6011 66.8301 19.0957 65.6875 19.0957C64.5537 19.0957 63.7627 19.6978 63.7627 20.5679ZM69.1416 18.0146V19.2231H68.3813V20.0933H69.1416V22.7168C69.1416 23.6484 69.5811 24.022 70.6841 24.022C70.895 24.022 71.0972 24 71.2554 23.9692V23.1167C71.1235 23.1299 71.04 23.1387 70.8862 23.1387C70.4292 23.1387 70.2271 22.9277 70.2271 22.4531V20.0933H71.2554V19.2231H70.2271V18.0146H69.1416ZM72.1738 20.5679C72.1738 21.293 72.6089 21.7192 73.5317 21.9302L74.3843 22.1279C74.8413 22.229 75.0479 22.4004 75.0479 22.6729C75.0479 23.0288 74.6655 23.2705 74.1162 23.2705C73.5713 23.2705 73.2329 23.0596 73.1274 22.7036H72.0508C72.1343 23.5781 72.8901 24.0967 74.0898 24.0967C75.2896 24.0967 76.1377 23.4814 76.1377 22.5586C76.1377 21.8511 75.7114 21.4556 74.793 21.249L73.9448 21.0557C73.4614 20.9458 73.2329 20.7788 73.2329 20.5063C73.2329 20.1592 73.6064 19.9219 74.103 19.9219C74.6128 19.9219 74.9336 20.1372 75.0127 20.4756H76.0366C75.9575 19.6011 75.2412 19.0957 74.0986 19.0957C72.9648 19.0957 72.1738 19.6978 72.1738 20.5679Z"/><defs><linearGradient id="paint0_linear" x1="50" x2="50" y1="0" y2="30" gradientUnits="userSpaceOnUse"><stop stop-color="#F0564C"/><stop offset="1" stop-color="#E14E50"/></linearGradient></defs></svg>

<svg xmlns="http://www.w3.org/2000/svg" width="100" height="30" fill="none"><path fill="#fff" d="M0 0H100V30H0z"/><path fill="url(#paint0_linear)" d="M0 0H100V30H0z"/><path fill="#fff" d="M15 22.399A7.384 7.384 0 1 1 22.384 15H25a10 10 0 1 0-10 10v-2.601z"/><path fill="#fff" d="M15 8.93a6.084 6.084 0 0 0 0 12.168v-2.167A3.916 3.916 0 1 1 18.916 15h2.168A6.084 6.084 0 0 0 15 8.93z"/><path fill="#fff" d="M31 3H97V27H31z"/><path fill="#000" d="M48.43 6.659V13h1.134v-2.079h1.376c1.283 0 2.18-.86 2.18-2.118 0-1.279-.867-2.144-2.132-2.144H48.43zm1.134.949h1.125c.817 0 1.279.417 1.279 1.195 0 .756-.475 1.178-1.283 1.178h-1.121V7.608zm6.636 5.489c1.437 0 2.311-.94 2.311-2.5 0-1.556-.879-2.501-2.311-2.501-1.428 0-2.312.949-2.312 2.5 0 1.56.87 2.5 2.312 2.5zm0-.914c-.76 0-1.196-.58-1.196-1.587 0-1.002.436-1.586 1.196-1.586.756 0 1.19.584 1.19 1.586 0 1.006-.43 1.587-1.19 1.587zm7.563-2.373c-.115-1.011-.862-1.714-2.096-1.714-1.446 0-2.294.927-2.294 2.487 0 1.582.852 2.514 2.298 2.514 1.217 0 1.973-.677 2.092-1.683h-1.037c-.115.5-.493.769-1.06.769-.742 0-1.19-.59-1.19-1.6 0-.998.443-1.573 1.19-1.573.598 0 .959.334 1.06.8h1.037zm2.25.342h-.075V6.334h-1.09V13h1.09v-1.674l.387-.387L67.867 13h1.319l-2.048-2.747 1.916-2.06h-1.266l-1.775 1.96zm5.765-1.19c.655 0 1.086.456 1.108 1.168h-2.263c.048-.703.505-1.169 1.155-1.169zm1.116 2.715c-.158.356-.531.554-1.072.554-.716 0-1.178-.501-1.204-1.3v-.058h3.358v-.351c0-1.517-.822-2.426-2.193-2.426-1.393 0-2.26.97-2.26 2.518 0 1.547.853 2.483 2.269 2.483 1.133 0 1.929-.545 2.135-1.42h-1.033zm2.523-4.662v1.208h-.76v.87h.76v2.624c0 .931.44 1.305 1.543 1.305.21 0 .413-.022.57-.053v-.852c-.131.013-.215.022-.368.022-.457 0-.66-.211-.66-.686v-2.36h1.029v-.87h-1.029V7.015h-1.085zM54.855 24.158c1.463 0 2.536-.874 2.685-2.17h-1.116c-.154.711-.765 1.16-1.569 1.16-1.081 0-1.753-.888-1.753-2.32 0-1.43.672-2.317 1.749-2.317.8 0 1.41.492 1.568 1.253h1.117c-.132-1.323-1.244-2.264-2.685-2.264-1.798 0-2.91 1.27-2.91 3.331 0 2.053 1.117 3.327 2.914 3.327zm5.476-.936c-.484 0-.831-.242-.831-.646 0-.39.286-.61.897-.65l1.085-.07v.382c0 .558-.492.984-1.151.984zm-.321.857c.628 0 1.156-.272 1.424-.738h.074V24h1.05v-3.283c0-1.02-.694-1.621-1.929-1.621-1.142 0-1.938.54-2.026 1.388h1.029c.1-.325.444-.5.945-.5.589 0 .905.263.905.733v.405l-1.24.074c-1.168.07-1.823.572-1.823 1.442 0 .879.664 1.441 1.59 1.441zm3.753-3.511c0 .725.435 1.151 1.358 1.362l.852.198c.457.101.664.272.664.545 0 .356-.383.598-.932.598-.545 0-.883-.211-.989-.567H63.64c.083.874.839 1.393 2.039 1.393 1.2 0 2.048-.616 2.048-1.538 0-.708-.427-1.103-1.345-1.31l-.848-.193c-.484-.11-.712-.277-.712-.55 0-.347.373-.584.87-.584.51 0 .83.215.91.554h1.023c-.079-.875-.795-1.38-1.938-1.38-1.133 0-1.924.602-1.924 1.472zm5.379-2.553v1.208h-.76v.87h.76v2.624c0 .931.44 1.305 1.542 1.305.211 0 .413-.022.571-.053v-.852c-.131.013-.215.022-.369.022-.457 0-.659-.211-.659-.686v-2.36h1.028v-.87h-1.028v-1.208h-1.085zm3.032 2.553c0 .725.435 1.151 1.358 1.362l.852.198c.457.101.664.272.664.545 0 .356-.383.598-.932.598-.545 0-.883-.211-.989-.567h-1.076c.083.874.84 1.393 2.039 1.393 1.2 0 2.048-.616 2.048-1.538 0-.708-.427-1.103-1.345-1.31l-.848-.193c-.484-.11-.712-.277-.712-.55 0-.347.373-.584.87-.584.51 0 .83.215.91.554h1.024c-.08-.875-.796-1.38-1.938-1.38-1.134 0-1.925.602-1.925 1.472z"/><defs><linearGradient id="paint0_linear" x1="50" x2="50" y2="30" gradientUnits="userSpaceOnUse"><stop stop-color="#F0564C"/><stop offset="1" stop-color="#E14E50"/></linearGradient></defs></svg>
